svg/fluentui-system-icons/ic_fluent_number_circle_5_24_filled.svg

<svg width="24" height="24" viewBox="0 0 24 24" fill="none" xmlns="http://www.w3.org/2000/svg">
<path d="M22 12C22 17.5228 17.5228 22 12 22C6.47715 22 2 17.5228 2 12C2 6.47715 6.47715 2 12 2C17.5228 2 22 6.47715 22 12ZM10.75 7C10.3564 7 10.0297 7.30432 10.0019 7.69697L9.75188 11.2238C9.73663 11.4389 9.81472 11.6502 9.96622 11.8036C10.1177 11.9571 10.3279 12.038 10.5432 12.0255L10.5466 12.0253L10.5583 12.0247L10.6048 12.0222C10.6455 12.0201 10.7049 12.0171 10.7783 12.0138C10.9253 12.0072 11.1274 11.9993 11.348 11.994C11.8097 11.983 12.2839 11.9859 12.532 12.0197C13.6251 12.174 14.3865 13.185 14.2329 14.2784C14.0792 15.3722 13.0678 16.1343 11.974 15.9806C11.2753 15.8824 10.7113 15.4347 10.4349 14.8357C10.2614 14.4596 9.81582 14.2953 9.43971 14.4689C9.06359 14.6424 8.89937 15.088 9.07289 15.4641C9.55394 16.5067 10.5404 17.2938 11.7652 17.466C13.6794 17.735 15.4493 16.4013 15.7183 14.4871C15.9873 12.5729 14.6536 10.8031 12.7394 10.5341L12.7369 10.5337C12.3517 10.4809 11.7591 10.4838 11.3122 10.4945L11.3073 10.4946L11.4487 8.5H14.2505C14.6647 8.5 15.0005 8.16421 15.0005 7.75C15.0005 7.33579 14.6647 7 14.2505 7H10.75Z" fill="#212121"/>
</svg>

<svg xmlns="http://www.w3.org/2000/svg" width="24" height="24"><path d="M22 12c0 5.523-4.477 10-10 10S2 17.523 2 12 6.477 2 12 2s10 4.477 10 10ZM10.75 7a.75.75 0 0 0-.748.697l-.25 3.527a.75.75 0 0 0 .791.801h.015l.047-.003a25.755 25.755 0 0 1 .743-.028c.462-.011.936-.008 1.184.026a2 2 0 1 1-2.097 2.816.75.75 0 1 0-1.362.628 3.5 3.5 0 1 0 3.667-4.93h-.003c-.385-.053-.978-.05-1.425-.04h-.005L11.45 8.5h2.802a.75.75 0 0 0 0-1.5H10.75Z"/></svg>
